X: 22509
T: Lady Elizabeth Cole's Reel
R: jig
M: 6/8
K: Gminor
d|:g2d e2c|d2B cBA|B2G A2G|^FAd D2d|
gdg ece|dBd cBA|Bcd cBA|1 G3 G2d:|2 G3 G2 B/c/||
|:dBG dBG|ede cdB|cAF cAF|dcd BcA|
BGE BGE|cBc ABG|^FGA d2c|1 BG^F G2 B/c/:|2 BG^F G2d||

